X: 2022
T: Yüce Dağ Başında Yatmış Uyumuş
C: Sadettin Kaynak
O: Turkey
F: http://compmusic.upf.edu/node/140
N: huseyni--turku--aksak--yuce_dag--sadettin_kaynak
N: makam= huseyni
N: form= turku
N: usul= aksak = 9/8
M: 9/8
L: 1/16
K: C _2/4B ^3/4f  
Q: 1/4=192
%%MIDI tuningsystem comma53
GA2A A2A2 Agfg e6 | GA2AA2 A2Ag fge4d2  | 
w:  ARANAĞME  |   | 
d2ed ecd2 dcdB c6 | d2 edec d2dc dBc2 B2A2  | 
w:   |   | 
G2cB AGcB AGcB d2B2 A2 | A6 e=fed cBA6  | 
w:   |   | 
GA2A A2A2 Agfg e6 | GA2AA2 A2Ag fge4d2  | 
w:  ARANAĞME  |   | 
d2ed ecd2 dcdB c6 | d2 edec d2dc dBc2 B2A2  | 
w:   |   | 
G2cB AGcB AGcB d2B2 A2 | A6 e=fed cde3dcd  | 
w:   |   | 
e4 c2d2 e4 e6 | e2 d2g2 fge4gf e2z2  | \
w:  *  Yü ce  dağ  ba  |  şın *  *  *  *  da  SAZ  | 
d4 e4 e4 e2d2 c2 | 
w:  yat mış  u yu  | 
d8d2 B2c3dcd  | e4 c2d2 e4 e6 | e2 d2g2 fge4gf e2z2  | 
w:  muş   *  *  SAZ  |  *  E lâ  göz le  |  ri *  *  *  *  ni  SAZ  | 
d4 e4 e4 e2d2 c2 | d8z4d2 e2f2  | g4 e2f2 g2f2 g6 | \
w:  uy ku  bü rü  |  müş   SAZ  |  *  Ev vel  kü *  çü  | 
g2 f2g4e4e2 {f}e2d2  | 
w:  cük *  *  tü   | 
d4 a4 g2fg e4 d2 | d4d2 {e}d2c2 B2c2 c2B2  | \
w:  şim di  bü *  *  yü  |  müş  a *  man  a *  man    | 
d3c d2d2 z4 c2c2 B2 | 
w:  Oy  *  be ni  be ni   | 
d3c{e}d2 d2z4c2 c2B2  | z2d4d2 d4 g6 | \
w:  sar  *  *  be ni  be ni    |  Sür me dim  sa  | 
g2 ^f2_3/4e2 d2c2 B2c4B2  | 
w:  fa *  *  *  nı   | 
d3c B2c2 B2A2 A6 | A6 d2c2 B2c4z2  | \
w:  ney *  *  le yim  *  se  |  ni   SAZ  | 
d3c d2d2 z4 c2c2 B2 | 
w:  Oy  *  be ni  be ni   | 
d3c{e}d2 d2z4c2 c2B2  | z2d4d2 d4 g6 | \
w:  sar  *  *  be ni  be ni    |  Sür me dim  sa  | 
g2 ^f2_3/4e2 d2c2 B2c4B2  | 
w:  fa *  *  *  nı   | 
d3c B2c2 B2A2 A6 | A6 d2c2 B2A4z2  | \
w:  ney *  *  le yim  *  se  |  ni   SAZ  | 
GA2A A2A2 Agfg e6 | 
w:  ARANAĞME  | 
GA2AA2 A2Ag fge4d2  | d2ed ecd2 dcdB c6 | 
w:   |   | 
d2 edec d2dc dBc2 B2A2  | G2cB AGcB AGcB d2B2 A2 | 
w:   |   | 
A6 e=fed cBA6  | GA2A A2A2 Agfg e6 | \
w:   |  ARANAĞME  | 
GA2AA2 A2Ag fge4d2  | 
w:   | 
d2ed ecd2 dcdB c6 | d2 edec d2dc dBc2 B2A2  | 
w:   |   | 
G2cB AGcB AGcB d2B2 A2 | A6 e=fed cde3dcd  | 
w:   |   | 
e4 c2d2 e4 e6 | e2 d2g2 fge4gf e2z2  | \
w:  *  Yü ce  dağ  ba  |  şın *  *  *  *  da  SAZ  | 
d4 e4 e4 e2d2 c2 | 
w:  yat mış  u yu  | 
d8d2 B2c3dcd  | e4 c2d2 e4 e6 | e2 d2g2 fge4gf e2z2  | 
w:  muş   *  *  SAZ  |  *  E lâ  göz le  |  ri *  *  *  *  ni  SAZ  | 
d4 e4 e4 e2d2 c2 | d8z4d2 e2f2  | g4 e2f2 g2f2 g6 | \
w:  uy ku  bü rü  |  müş   SAZ  |  *  Ev vel  kü *  çü  | 
g2 f2g4e4e2 {f}e2d2  | 
w:  cük *  *  tü   | 
d4 a4 g2fg e4 d2 | d4d2 {e}d2c2 B2c2 c2B2  | \
w:  şim di  bü *  *  yü  |  müş  a *  man  a *  man    | 
d3c d2d2 z4 c2c2 B2 | 
w:  Oy  *  be ni  be ni   | 
d3c{e}d2 d2z4c2 c2B2  | z2d4d2 d4 g6 | \
w:  sar  *  *  be ni  be ni    |  Sür me dim  sa  | 
g2 ^f2_3/4e2 d2c2 B2c4B2  | 
w:  fa *  *  *  nı   | 
d3c B2c2 B2A2 A6 | A6 d2c2 B2c4z2  | \
w:  ney *  *  le yim  *  se  |  ni   SAZ  | 
d3c d2d2 z4 c2c2 B2 | 
w:  Oy  *  be ni  be ni   | 
d3c{e}d2 d2z4c2 c2B2  | z2d4d2 d4 g6 | \
w:  sar  *  *  be ni  be ni    |  Sür me dim  sa  | 
g2 ^f2_3/4e2 d2c2 B2c4B2  | 
w:  fa *  *  *  nı   | 
d3c B2c2 B2A2 A6 | A6 d2c2 B2A4z2  | |


